X: 34
T:Missa Pro Defunctis / Introit
N: Derived from Jos0404a-Missa_Pro_Defunctis-Introit.krn
C: Josquin des Prez
%%abc-version 2.0
%%abcx-abcm2ps-target-version 5.9.1 (29 Sep 2008)
%%abc-creator hum2abc beta
%%abcx-conversion-date 2019/02/12 16:15:39
%%abc-edited-by Jesse Rodin
%%abc-edited-by Will Watson 30/05/2011
%%abcx-initial-encoding-date 2012/01/21/
%%humdrum-veritas 4166327026
%%humdrum-veritas-data 3828574573
%%linebreak <none>
%%barnumbers 0
L: 1/4
M: 2/1
Q: 1/2=120
V: 1 clef=treble
V: 2 clef=treble-8
V: 3 clef=treble-8
V: 4 clef=treble-8
V: 5 clef=treble-8
V: 6 clef=bass
K: F
[V:1] F8- | 
[V:2] c8 | 
[V:3] F6G2 | 
[V:4] z8 | 
[V:5] z8 | 
[V:6] z4F,4- | 
[V:1] F8 | 
[V:2] d4f4- | 
[V:3] A2B2c4- | 
[V:4] z8 | 
[V:5] z8 | 
[V:6] F,2G,2A,3B, | 
[V:1] G8 | 
[V:2] f2ede4 | 
[V:3] c2BAB4 | 
[V:4] z8 | 
[V:5] z8 | 
[V:6] G,8 | 
[V:1] A8 | 
[V:2] f8- | 
[V:3] c8 | 
[V:4] z8 | 
[V:5] F8 | 
[V:6] F,4F,,4- | 
[V:1] A6GA | 
[V:2] f6e2 | 
[V:3] C8 | 
[V:4] z8 | 
[V:5] F4F4 | 
[V:6] F,,2G,,2A,,4 | 
[V:1] G2F4E2 | 
[V:2] d4c4 | 
[V:3] D4E4 | 
[V:4] z8 | 
[V:5] G8 | 
[V:6] B,,4C,4 | 
[V:1] F4c4- | 
[V:2] f8 | 
[V:3] C8- | 
[V:4] c8 | 
[V:5] F8 | 
[V:6] F,,8 | 
[V:1] c2BAG2c2- | 
[V:2] e6dc | 
[V:3] C8 | 
[V:4] c4c4 | 
[V:5] G8- | 
[V:6] z8 | 
[V:1] c2=BA=B4 | 
[V:2] g8 | 
[V:3] z8 | 
[V:4] d8 | 
[V:5] G8 | 
[V:6] z8 | 
[V:1] c4z4 | 
[V:2] e4c4 | 
[V:3] c6B2 | 
[V:4] c8 | 
[V:5] A8- | 
[V:6] z4F,4- | 
[V:1] F8- | 
[V:2] z4A4 | 
[V:3] A2G2F2E2 | 
[V:4] d8- | 
[V:5] A8 | 
[V:6] F,2E,2D,2C,2 | 
[V:1] F4G4 | 
[V:2] B8 | 
[V:3] D4d4 | 
[V:4] d8 | 
[V:5] z8 | 
[V:6] B,,8 | 
[V:1] A8- | 
[V:2] c4A3B | 
[V:3] c6B2 | 
[V:4] e8- | 
[V:5] A8- | 
[V:6] A,,8- | 
[V:1] A8 | 
[V:2] c2d4^c2 | 
[V:3] A2GFE2A2 | 
[V:4] e8 | 
[V:5] A4A4 | 
[V:6] A,,8 | 
[V:1] F4G4- | 
[V:2] d8 | 
[V:3] z4D4 | 
[V:4] z8 | 
[V:5] B8 | 
[V:6] z4G,,4 | 
[V:1] G2F2E2D2 | 
[V:2] c8- | 
[V:3] E4G4- | 
[V:4] e8- | 
[V:5] G8- | 
[V:6] C,8- | 
[V:1] C4c4- | 
[V:2] c8- | 
[V:3] G2F2E2D2 | 
[V:4] e4e4 | 
[V:5] G8 | 
[V:6] C,8 | 
[V:1] c2B2A2G2 | 
[V:2] c8 | 
[V:3] C4F4- | 
[V:4] f8 | 
[V:5] F8- | 
[V:6] A,,4F,,4 | 
[V:1] F4B4 | 
[V:2] z2B4AG | 
[V:3] F2D2D4 | 
[V:4] d8- | 
[V:5] F8- | 
[V:6] B,,3A,,B,,C,D,2- | 
[V:1] A2B3ABG | 
[V:2] F2f3df2 | 
[V:3] z4D4 | 
[V:4] d8 | 
[V:5] F8 | 
[V:6] D,C,B,,A,,B,,4 | 
[V:1] A2G3EA2- | 
[V:2] e4e3d | 
[V:3] E4C2c2- | 
[V:4] c8- | 
[V:5] z8 | 
[V:6] C,8- | 
[V:1] AGF4E2 | 
[V:2] e2c3BG2 | 
[V:3] cBA2G4 | 
[V:4] c8- | 
[V:5] z8 | 
[V:6] C,8 | 
[V:1] F8- | 
[V:2] A4z2F2 | 
[V:3] z2F2A3B | 
[V:4] c8 | 
[V:5] z8 | 
[V:6] F,,8 | 
[V:1] F8 | 
[V:2] A3Bcdc2- | 
[V:3] cdc3BA2 | 
[V:4] z8 | 
[V:5] z8 | 
[V:6] z4F,4 | 
[V:1] z4A4 | 
[V:2] cdc/B/A/G/F4- | 
[V:3] G4d4 | 
[V:4] z8 | 
[V:5] z8 | 
[V:6] E,4D,4 | 
[V:1] A8 | 
[V:2] F4f4 | 
[V:3] d2d2c4- | 
[V:4] z8 | 
[V:5] z8 | 
[V:6] F,4F,4 | 
[V:1] G8 | 
[V:2] f4e4 | 
[V:3] c2BAG4 | 
[V:4] z8 | 
[V:5] z8 | 
[V:6] C,8 | 
[V:1] F8 | 
[V:2] f4F3G | 
[V:3] A8- | 
[V:4] z8 | 
[V:5] F8 | 
[V:6] z8 | 
[V:1] C4D4 | 
[V:2] ABc4=B2 | 
[V:3] A4z2F2 | 
[V:4] z8 | 
[V:5] F4D4 | 
[V:6] z4F,4 | 
[V:1] E4F4 | 
[V:2] c4z4 | 
[V:3] G4A4- | 
[V:4] z8 | 
[V:5] C4F4- | 
[V:6] E,4D,4 | 
[V:1] z4A4 | 
[V:2] f8 | 
[V:3] A2F2A2B2 | 
[V:4] c8 | 
[V:5] F4F4 | 
[V:6] F,4F,4 | 
[V:1] G4c4- | 
[V:2] e4e4 | 
[V:3] c8 | 
[V:4] c4A4 | 
[V:5] z8 | 
[V:6] C,8- | 
[V:1] c2BAG4 | 
[V:2] c6B2 | 
[V:3] z4C4- | 
[V:4] G4c4- | 
[V:5] z4E4 | 
[V:6] C,4C,4 | 
[V:1] A8 | 
[V:2] A3GA4 | 
[V:3] C2C2F4- | 
[V:4] c4c4 | 
[V:5] F4F4 | 
[V:6] F,,4F,,4 | 
[V:1] F4B4- | 
[V:2] B8- | 
[V:3] F2E2D3C | 
[V:4] z8 | 
[V:5] F8 | 
[V:6] B,,6A,,2 | 
[V:1] B2A2G3F | 
[V:2] B8 | 
[V:3] D8 | 
[V:4] z4B4 | 
[V:5] G8- | 
[V:6] G,,8 | 
[V:1] EDF4E2 | 
[V:2] z4G4 | 
[V:3] C8 | 
[V:4] c4c4 | 
[V:5] G8 | 
[V:6] z4C,4 | 
[V:1] F8- | 
[V:2] A3GA2F2 | 
[V:3] z4c4 | 
[V:4] c8 | 
[V:5] F8- | 
[V:6] F,,4F,3E, | 
[V:1] F8 | 
[V:2] f3ed2c2 | 
[V:3] F4B4- | 
[V:4] d8- | 
[V:5] F8 | 
[V:6] D,2C,2B,,3A,, | 
[V:1] z8 | 
[V:2] B2c4=B2 | 
[V:3] B2A2G4 | 
[V:4] d8 | 
[V:5] z8 | 
[V:6] G,,2F,,2G,,4 | 
[V:1] z4G4 | 
[V:2] c4G4 | 
[V:3] C4z2C2- | 
[V:4] c8- | 
[V:5] z4E4 | 
[V:6] z4C,4 | 
[V:1] A6G2 | 
[V:2] z4c4 | 
[V:3] C2C2F4- | 
[V:4] c8 | 
[V:5] F4F4 | 
[V:6] F,,8 | 
[V:1] F4B4- | 
[V:2] d4d4 | 
[V:3] F2E2D3C | 
[V:4] z8 | 
[V:5] F8 | 
[V:6] B,,6A,,2 | 
[V:1] B2A2G3F | 
[V:2] B3cd4 | 
[V:3] D8 | 
[V:4] z4B4 | 
[V:5] G8- | 
[V:6] G,,8 | 
[V:1] EDF4E2 | 
[V:2] z4G4 | 
[V:3] C8 | 
[V:4] c4c4 | 
[V:5] G8 | 
[V:6] z4C,4 | 
[V:1] F8- | 
[V:2] A4F4 | 
[V:3] c6B2 | 
[V:4] c8 | 
[V:5] F8- | 
[V:6] F,,4F,4- | 
[V:1] F8- | 
[V:2] f6e2 | 
[V:3] A2G2F4- | 
[V:4] d8- | 
[V:5] F8- | 
[V:6] F,2E,2D,2C,2 | 
[V:1] F8- | 
[V:2] d2c2B4 | 
[V:3] F2F/E/D/C/D3E | 
[V:4] d8 | 
[V:5] F8- | 
[V:6] B,,8 | 
[V:1] F8- | 
[V:2] A8- | 
[V:3] FGF4ED | 
[V:4] c8- | 
[V:5] F8- | 
[V:6] F,,8- | 
[V:1] F8 ||  
[V:2] A8 ||  
[V:3] C8 ||  
[V:4] c8 ||  
[V:5] F8 ||  
[V:6] F,,8 ||  
[V:1]  [K:F] [K:clef=treble][M:2/1]F8 | 
[V:2]  [K:F] [K:clef=treble-8][M:2/1]c8 | 
[V:3]  [K:F] [K:clef=treble-8][M:2/1]A8 | 
[V:4]  [K:F] [K:clef=treble-8][M:2/1]z8 | 
[V:5]  [K:F] [K:clef=treble-8][M:2/1]z8 | 
[V:6]  [K:F] [K:clef=bass][M:2/1]F,8 | 
[V:1] G4A4 | 
[V:2] e4f4 | 
[V:3] c4c4 | 
[V:4] z8 | 
[V:5] z8 | 
[V:6] C,4F,4 | 
[V:1] A4A4 | 
[V:2] f4f2f2 | 
[V:3] c4c2c2 | 
[V:4] z8 | 
[V:5] z8 | 
[V:6] F,4F,2F,2 | 
[V:1] A2A2A4- | 
[V:2] c2f3edc | 
[V:3] A4F4 | 
[V:4] z8 | 
[V:5] F8 | 
[V:6] F,4D,2F,2- | 
[V:1] A2A/G/F/E/F4 | 
[V:2] d2c4=B2 | 
[V:3] z8 | 
[V:4] z8 | 
[V:5] F4F4 | 
[V:6] F,E,D,C,D,4 | 
[V:1] E6E2 | 
[V:2] c6c2 | 
[V:3] z4G4 | 
[V:4] z8 | 
[V:5] G8 | 
[V:6] C,8 | 
[V:1] F3EC2D2 | 
[V:2] c3BA4 | 
[V:3] A3GF4 | 
[V:4] c8 | 
[V:5] F8 | 
[V:6] z4F,,4 | 
[V:1] E8 | 
[V:2] G4z4 | 
[V:3] E4G4- | 
[V:4] c4c4 | 
[V:5] G8- | 
[V:6] C,4C,4 | 
[V:1] z8 | 
[V:2] z8 | 
[V:3] G2FED4 | 
[V:4] d8 | 
[V:5] G8 | 
[V:6] B,,8 | 
[V:1] z4E4 | 
[V:2] z4z2A2 | 
[V:3] E8 | 
[V:4] c8 | 
[V:5] A8- | 
[V:6] A,,4A,,4 | 
[V:1] F4F2F2- | 
[V:2] A2A2FEFG | 
[V:3] z4z2D2 | 
[V:4] d8- | 
[V:5] A8 | 
[V:6] D,4D,4 | 
[V:1] FEDCD4 | 
[V:2] A4A2A2 | 
[V:3] F2F2F4 | 
[V:4] d8 | 
[V:5] z8 | 
[V:6] D,8 | 
[V:1] C4C4 | 
[V:2] A2A2E4 | 
[V:3] E6E2 | 
[V:4] e8- | 
[V:5] A8- | 
[V:6] A,,4A,,4 | 
[V:1] C3CC2C2 | 
[V:2] A2GFE4 | 
[V:3] E3DC2C2 | 
[V:4] e8 | 
[V:5] A4A4 | 
[V:6] A,,3A,,A,,2A,,2 | 
[V:1] D8 | 
[V:2] z4z2G2 | 
[V:3] G8 | 
[V:4] z8 | 
[V:5] B8 | 
[V:6] G,,8 | 
[V:1] C8 | 
[V:2] G2G2c4- | 
[V:3] E4C4 | 
[V:4] e8- | 
[V:5] G8- | 
[V:6] C,4z2C,2 | 
[V:1] z2c2c2c2 | 
[V:2] c4c4- | 
[V:3] z2G2E2E2 | 
[V:4] e4e4 | 
[V:5] G8 | 
[V:6] C,4C,2C,2 | 
[V:1] A2A2F4 | 
[V:2] c2c2d2e2 | 
[V:3] A8 | 
[V:4] f8 | 
[V:5] F8- | 
[V:6] F,3E,D,2C,2 | 
[V:1] B3ABcd2- | 
[V:2] f3edcB2- | 
[V:3] z4D4 | 
[V:4] d8- | 
[V:5] F8- | 
[V:6] B,,8 | 
[V:1] dcc4B2 | 
[V:2] B2AGF3G | 
[V:3] F4F4- | 
[V:4] d8 | 
[V:5] F8- | 
[V:6] B,,8 | 
[V:1] c8- | 
[V:2] A8- | 
[V:3] F2C2F3E/D/ | 
[V:4] c8- | 
[V:5] F8- | 
[V:6] F,,8- | 
[V:1] c8 |]  
[V:2] A8 |]  
[V:3] C8 |]  
[V:4] c8 |]  
[V:5] F8 |]  
[V:6] F,,8 |]  



